Numix-GalliumOS/16/categories/applications-cardgames.svg

<?xml version="1.0" encoding="UTF-8" standalone="no"?>
<svg
   xmlns:dc="http://purl.org/dc/elements/1.1/"
   xmlns:cc="http://creativecommons.org/ns#"
   xmlns:rdf="http://www.w3.org/1999/02/22-rdf-syntax-ns#"
   xmlns:svg="http://www.w3.org/2000/svg"
   xmlns="http://www.w3.org/2000/svg"
   xmlns:sodipodi="http://sodipodi.sourceforge.net/DTD/sodipodi-0.dtd"
   xmlns:inkscape="http://www.inkscape.org/namespaces/inkscape"
   width="16"
   height="16"
   viewBox="0 0 16 16"
   id="svg2"
   version="1.1"
   inkscape:version="0.91 r"
   sodipodi:docname="applications-cardgames.svg">
  <metadata
     id="metadata14">
    <rdf:RDF>
      <cc:Work
         rdf:about="">
        <dc:format>image/svg+xml</dc:format>
        <dc:type
           rdf:resource="http://purl.org/dc/dcmitype/StillImage" />
      </cc:Work>
    </rdf:RDF>
  </metadata>
  <defs
     id="defs12" />
  <sodipodi:namedview
     pagecolor="#ffffff"
     bordercolor="#666666"
     borderopacity="1"
     objecttolerance="10"
     gridtolerance="10"
     guidetolerance="10"
     inkscape:pageopacity="0"
     inkscape:pageshadow="2"
     inkscape:window-width="1920"
     inkscape:window-height="1056"
     id="namedview10"
     showgrid="true"
     inkscape:zoom="41.7193"
     inkscape:cx="3.4803568"
     inkscape:cy="8.3112077"
     inkscape:window-x="0"
     inkscape:window-y="24"
     inkscape:window-maximized="1"
     inkscape:current-layer="svg2">
    <inkscape:grid
       type="xygrid"
       id="grid4149" />
  </sodipodi:namedview>
  <path
     style="fill:#f9b081"
     d="M 2.4863281 2 C 2.2208413 2 2 2.1992609 2 2.4394531 L 2 11.560547 C 2 11.800738 2.2208413 12 2.4863281 12 L 8.5136719 12 C 8.7791587 12 9 11.800738 9 11.560547 L 9 2.4394531 C 9 2.1992609 8.7791587 2 8.5136719 2 L 2.4863281 2 z M 4.5 5.2421875 C 4.7559099 5.2423086 5.0119995 5.3401245 5.2070312 5.5351562 C 5.4024782 5.7306031 5.4999824 5.9863813 5.5 6.2421875 C 5.5000176 5.9863813 5.5975219 5.7306031 5.7929688 5.5351562 C 6.1830327 5.145078 6.8168388 5.1449497 7.2070312 5.5351562 C 7.5980804 5.9261915 7.5970486 6.5591526 7.2070312 6.9492188 L 5.5 8.7578125 L 3.7949219 6.9511719 C 3.7949219 6.9511719 3.7929688 6.9492188 3.7929688 6.9492188 C 3.4032501 6.5591274 3.4020438 5.9260807 3.7929688 5.5351562 C 3.9880715 5.340053 4.2440892 5.2420659 4.5 5.2421875 z "
     id="path6" />
  <path
     style="fill:#f9b081"
     inkscape:connector-curvature="0"
     id="path8"
     d="M 8.8794116,3.3894027 C 8.6233131,3.322945 8.3592443,3.4576088 8.299442,3.6897114 L 5.9520465,12.495736 c -0.0598,0.232101 0.1001391,0.481486 0.3562378,0.547942 L 12.12061,14.61061 c 0.256221,0.07041 0.515778,-0.06832 0.579968,-0.300309 L 15.043695,5.5081775 C 15.107782,5.2721514 14.947839,5.0227665 14.69174,4.9563104 Z M 11.084819,6.8014484 11.946678,9.3876362 9.915187,11.198553 9.0533445,8.6123698 Z"
     sodipodi:nodetypes="cccccccccccccc" />
</svg>

<svg xmlns="http://www.w3.org/2000/svg" viewBox="0 0 16 16">
 <path d="m 2.486 2 c -0.265 0 -0.486 0.199 -0.486 0.439 l 0 9.121 c 0 0.24 0.221 0.439 0.486 0.439 l 6.03 0 c 0.265 0 0.486 -0.199 0.486 -0.439 l 0 -9.121 c 0 -0.24 -0.221 -0.439 -0.486 -0.439 l -6.03 0 z m 2.01 3.242 c 0.256 0 0.512 0.098 0.707 0.293 c 0.195 0.195 0.293 0.451 0.293 0.707 c 0 -0.256 0.098 -0.512 0.293 -0.707 c 0.39 -0.39 1.024 -0.39 1.414 0 c 0.391 0.391 0.39 1.024 0 1.414 l -1.707 1.809 l -1.705 -1.807 c 0 0 -0.002 -0.002 -0.002 -0.002 c -0.39 -0.39 -0.391 -1.023 0 -1.414 c 0.195 -0.195 0.451 -0.293 0.707 -0.293 z" style="fill:#f9b081"/>
 <path d="m 8.879 3.389 c -0.256 -0.066 -0.52 0.068 -0.58 0.3 l -2.347 8.806 c -0.06 0.232 0.1 0.481 0.356 0.548 l 5.812 1.567 c 0.256 0.07 0.516 -0.068 0.58 -0.3 l 2.343 -8.802 c 0.064 -0.236 -0.096 -0.485 -0.352 -0.552 m -3.607 1.845 0.862 2.586 -2.031 1.811 -0.862 -2.586" style="fill:#f9b081"/>
</svg>
